!!!!SEGMENT: pl-kk--kk-i-482--001_zieleniewicz-mathias--msza-isza-kyrie.krn
!!!cenid: 17xx:1909
!!!COM: Zieleniewicz, Mathias
!!!COM-rismid: pe50045913
!!!CDT: <1724->1763
!!!CNT: Polish
!!!OPR: Msza Isza
!!!OTL: Kyrie
!!!OMV: 001
!!!PDT: 1724
!!!AGN: Sacred; Mass
!!!SMS-siglum: PL-Kk
!!!SMS-shelfmark: Kk.I.482
!!!SMS-shelfwork: 001-001 M
!!!SMS-variant: Alto. PL-Kk KK.I.482:0017; Soprano. PL-Kk KK.I.482:0021; Tenore. PL-Kk KK.I.482:0023; Basso. PL-Kk KK.I.482:0027
!!!SMS-altvar: [Partytura] PL-Kk KK.I.482:0002-0004; Soprano PL-Kk KK.I.482:0033; Alto PL-Kk KK.I.482:0037; Tenore. PL-Kk KK.I.482:0042
!!!NIFC-rismid: 1001140322
!!!URL-scan: http://repozytorium.nifc.pl/skany/pl-kk-nut--i-482
!!!ONB-nifc: UWAGA: zakres skanów 0015-0031. Proszę uzupełnić pola !!!SMS dot. partytury i głosów. UWAGA: w zbiorze Msza Isza i Msza 2ga. Części Mszy Iszej: 1. Kyrie, 2. Gloria, 3. Sanctus, 4. Benedictus, 5. Agnus
!!!key:
**kern	**text	**kern	**text	**kern	**text	**kern	**text
*part4	*part4	*part3	*part3	*part2	*part2	*part1	*part1
*staff4	*staff4	*staff3	*staff3	*staff2	*staff2	*staff1	*staff1
*Ibass	*	*Itenor	*	*Ialto	*	*Isoprn	*
*I"Basso.	*	*I"Tenore.	*	*I"Alto.	*	*I"Soprano.	*
*I'B	*	*I'T	*	*I'A	*	*I'S	*
*clefF4	*	*clefC4	*	*clefC3	*	*clefC1	*
*k[]	*	*k[]	*	*k[]	*	*k[]	*
*a:	*	*a:	*	*a:	*	*a:	*
*M2/2	*	*M2/2	*	*M2/2	*	*M2/2	*
*met(c|)	*	*met(c|)	*	*met(c|)	*	*met(c|)	*
=1	=1	=1	=1	=1	=1	=1	=1
*all\right	*	*all\right	*	*all\right	*	*all\right	*
*2\right	*	*	*	*	*	*	*
!	!	!LO:TX:a:t=8.	!	!LO:TX:a:t=2.	!	!LO:TX:a:t=4.	!
!LO:TX:a:t=Kyrie	!	!LO:TX:a:t=Kyrie	!	!LO:TX:a:t=Kyrie	!	!LO:TX:a:t=Kyrie	!
!LO:TX:a:t=Msza 1sza. do Kaplicy Rorantystow z 1724. r&colon; Xię. Zieleniewicza.	!	!LO:TX:a:t=Msza 1. do Kaplicy Rorantistow z Roku 1724. Xię. Zieleniewicza	!	!LO:TX:a:t=Msza. 1.sza do Kaplicy Rorantistow z Ro&colon; 1724. p Xię. Zieleniewicza.	!	!LO:TX:a:t=Msza 1sza do Kap&colon; Rorantystow z Ro&colon; 1724. p Xię&colon; Zieleniewicza	!
2.A\	Ky-	00r	.	0r	.	00r	.
4A\	-ri-	.	.	.	.	.	.
=2	=2	=2	=2	=2	=2	=2	=2
2.E\	-e	.	.	.	.	.	.
4F\	.	.	.	.	.	.	.
=3	=3	=3	=3	=3	=3	=3	=3
*	*	*	*	*2\right	*	*	*
2G\	e-	.	.	2.e\	Ky-	.	.
2A\	.	.	.	.	.	.	.
.	.	.	.	4e\	-ri-	.	.
=4	=4	=4	=4	=4	=4	=4	=4
1F	.	.	.	1A	-e	.	.
=5	=5	=5	=5	=5	=5	=5	=5
*	*	*	*	*	*	*2\right	*
4E\	-le-	00r	.	2.B/	e-	2.ee\	Ky-
4F#X\	.	.	.	.	.	.	.
4G\	.	.	.	.	.	.	.
4E\	.	.	.	4c/	.	4ee\	-ri-
=6	=6	=6	=6	=6	=6	=6	=6
4F#X\	.	.	.	1d	.	2.a\	-e
4D\	.	.	.	.	.	.	.
4F#\	.	.	.	.	.	.	.
4G#X\	.	.	.	.	.	4b\	.
=7	=7	=7	=7	=7	=7	=7	=7
4A\	.	.	.	2e\	.	2cc\	e-
4Gn\	.	.	.	.	.	.	.
4F#X\	.	.	.	2d\	.	2dd\	.
8E\L	.	.	.	.	.	.	.
8F#\J	.	.	.	.	.	.	.
!LO:LB:g=original	!	!	!	!	!	!	!
=8	=8	=8	=8	=8	=8	=8	=8
4G#X\	.	.	.	1e	-lei-	1b	lei-
2A\	.	.	.	.	.	.	.
4G#\	-i-	.	.	.	.	.	.
=9	=9	=9	=9	=9	=9	=9	=9
*	*	*2\right	*	*	*	*	*
2A\	-son,	2.A\	Ky-	2c\	-son,	4a\	-son
.	.	.	.	.	.	4b\	.
2AA/	e-	.	.	[2e\	Ky-	2cc\	e-
.	.	4A\	-ri-	.	.	.	.
=10	=10	=10	=10	=10	=10	=10	=10
1C	-le-	2.E/	-e	2e\]	.	4cc\	-le-
.	.	.	.	.	.	8b\L	.
.	.	.	.	.	.	8a\J	-i-
!	!	!	!	!LO:LB:g=original	!	!	!
.	.	.	.	2c\	-ri-	4g\	-son
.	.	4F/	.	.	.	4a\	e-
=11	=11	=11	=11	=11	=11	=11	=11
2BB/	.	2G/	e-	2d\	e	2b\	-lei-
2C/	.	2A/	.	2e\	.	4e/	-son
.	.	.	.	.	.	4ee\	e-
!	!	!	!	!	!	!LO:LB:g=original	!
=12	=12	=12	=12	=12	=12	=12	=12
2AA/	.	1F	-lei-	2f\	le-	4ee\	-le-
.	.	.	.	.	.	8dd\L	.
.	.	.	.	.	.	8cc\J	.
2BB/	.	.	.	2d\	.	2dd\	.
=13	=13	=13	=13	=13	=13	=13	=13
2.C/	.	2E/	-son	2c\	.	2ee\	.
.	.	[2A\	Ky-	4e\	.	2cc\	.
4D/	-i-	.	.	4f\	.	.	.
=14	=14	=14	=14	=14	=14	=14	=14
1E	-son,	2A\]	.	1e	-i-	1b	.
.	.	2G#X\	-ri-	.	.	.	.
=15	=15	=15	=15	=15	=15	=15	=15
2.AA/	e-	2.c\	-e	2e\	-son,	1a	.
.	.	.	.	2r	.	.	.
4BB/	.	4d\	.	.	.	.	.
!	!	!LO:LB:g=original	!	!	!	!	!
=16	=16	=16	=16	=16	=16	=16	=16
2C/	.	4e\	e-	2r	.	2e/	-son,
.	.	4A\	.	.	.	.	.
2D/	.	4f\	.	[2f\	Ky-	[2a\	Ky-
.	.	4e\	.	.	.	.	.
!LO:LB:g=original	!	!	!	!	!	!	!
=17	=17	=17	=17	=17	=17	=17	=17
1BB	-lei-	4d\	.	2f\]	.	2a\]	.
.	.	4c\	.	.	.	.	.
.	.	2d\	-lei-	2d\	-ri-	2g#X\	-ri-
=18	=18	=18	=18	=18	=18	=18	=18
2AA/	-son,	1c	-son,	1e	-e	1a	-e
[2A\	Ky-	.	.	.	.	.	.
!	!	!	!	!LO:LB:g=original	!	!	!
=19	=19	=19	=19	=19	=19	=19	=19
!	!	!	!	!LO:TX:a:t=2.	!	!	!
2A\]	.	2.B\	e-	0r	.	2.e/	e-
4G#X\	.	.	.	.	.	.	.
4A\	-ri-	4c\	.	.	.	4f/	.
=20	=20	=20	=20	=20	=20	=20	=20
2B\	-e	2d\	-le-	.	.	2g#X\	-le-
4c\	.	4e\	.	.	.	2a\	.
4B\	.	4d\	.	.	.	.	.
=21	=21	=21	=21	=21	=21	=21	=21
4A\	e-	4c\	.	2r	.	1f	.
4G#X\	.	4B\	.	.	.	.	.
2.A\	.	[2c\	.	4c\	e-	.	.
.	.	.	.	4d\	.	.	.
=22	=22	=22	=22	=22	=22	=22	=22
.	.	2c\]	.	1e	-lei-	1e	-i-
8G#X\L	.	.	.	.	.	.	.
8F#X\J	.	.	.	.	.	.	.
2G#\	-lei-	2B\	-i-	.	.	.	.
!	!	!	!	!	!	!LO:LB:g=original	!
=23	=23	=23	=23	=23	=23	=23	=23
!LO:TX:a:t=2	!	!LO:TX:a:t=2	!	!LO:TX:a:t=2	!	!LO:TX:a:t=2	!
0A	-son.	0c#X	-son.	0e	-son.	0a	-son.
=24	=24	=24	=24	=24	=24	=24	=24
.	.	.	.	.	.	.	.
!LO:LB:g=original	!	!LO:LB:g=original	!	!	!	!	!
=25||	=25||	=25||	=25||	=25||	=25||	=25||	=25||
!	!	!LO:TX:a:t=1.	!	!LO:TX:a:t=1.	!	!LO:TX:a:t=4.	!
!LO:TX:a:t=Christe.	!	!LO:TX:a:t=Christe	!	!	!	!	!
2.AA/	Chri-	1r	.	1r	.	00r	.
4BB/	.	.	.	.	.	.	.
=26	=26	=26	=26	=26	=26	=26	=26
4C/	-ste	2.E/	Chri-	2.e\	Chri-	.	.
4BB/	.	.	.	.	.	.	.
4C/	.	.	.	.	.	.	.
4D/	.	4F#X/	.	4d\	.	.	.
=27	=27	=27	=27	=27	=27	=27	=27
2.E\	e-	4G/	-ste	4c\	-ste	.	.
.	.	4E/	.	4e\	.	.	.
.	.	4G/	.	4c\	.	.	.
4F\	.	4A/	e-	4A/	.	.	.
=28	=28	=28	=28	=28	=28	=28	=28
4G#X\	-le-	2B\	-le-	2B/	.	.	.
4E\	.	.	.	.	.	.	.
[2A\	.	2c\	-i-	2c/	e-	.	.
=29	=29	=29	=29	=29	=29	=29	=29
2A\]	.	1B	-son	2d\	-le-	2.ee\	Chri-
2Gn\	-i-	.	.	2e\	-i-	.	.
.	.	.	.	.	.	4dd\	.
!	!	!	!	!LO:LB:g=original	!	!	!
=30	=30	=30	=30	=30	=30	=30	=30
2.A\	-son	1A	.	2c\	-son	4cc\	-ste
.	.	.	.	.	.	4ee\	.
.	.	.	.	2e\	e-	4cc\	.
4G\	Chri-	.	.	.	.	4b\	.
=31	=31	=31	=31	=31	=31	=31	=31
!	!	!LO:TX:a:t=1.	!	!	!	!	!
4F\	-ste	1r	.	2.f\	-le-	2a\	e-
4A\	.	.	.	.	.	.	.
4F\	.	.	.	.	.	4dd\	.
4E\	.	.	.	4e\	.	4ee\	.
!LO:LB:g=original	!	!	!	!	!	!	!
=32	=32	=32	=32	=32	=32	=32	=32
4D\	le-	2.A\	Chri-	4f\	.	4ff\	-le-
4C\	.	.	.	4e\	.	2ee\	.
2D\	-i-	.	.	2f\	-i-	.	.
.	.	4B\	.	.	.	4dd\	-i-
!	!	!LO:LB:g=original	!	!	!	!	!
=33	=33	=33	=33	=33	=33	=33	=33
1AA	-son,	4c\	-ste	1e	-son.	2ee\	-son
.	.	4A\	.	.	.	.	.
.	.	4c\	e-	.	.	4a\	e-
.	.	4d\	.	.	.	4b\	.
=34	=34	=34	=34	=34	=34	=34	=34
!LO:TX:a:t=2	!	!	!	!LO:TX:a:t=3.	!	!	!
0r	.	2e\	-le-	0r	.	4cc\	-le-
.	.	.	.	.	.	4a\	.
.	.	4A\	.	.	.	4cc\	.
.	.	4B\	.	.	.	4dd\	-i-
!	!	!	!	!	!	!LO:LB:g=original	!
=35	=35	=35	=35	=35	=35	=35	=35
.	.	4c\	.	.	.	4ee\	-son
.	.	4B\	.	.	.	4dd\	Chri-
.	.	4A\	.	.	.	4cc\	-ste
.	.	8G\L	.	.	.	8b\L	e-
.	.	8A\J	-i-	.	.	8a\J	.
=36	=36	=36	=36	=36	=36	=36	=36
2.E\	Chri-	2G/	-son	1r	.	4b\	-le-
.	.	.	.	.	.	4a\	.
.	.	2B\	e-	.	.	4g\	.
4D\	.	.	.	.	.	4f#X/	-i-
=37	=37	=37	=37	=37	=37	=37	=37
4C\	-ste	4c\	-le-	2.e\	Chri-	2e/	-son
4E\	.	4G\	.	.	.	.	.
4C/	.	4A\	.	.	.	4ee\	Chri-
4BB/	.	4B\	-i-	4d\	.	4dd\	.
=38	=38	=38	=38	=38	=38	=38	=38
2AA/	.	2E/	-son.	4c\	-ste	4cc\	-ste
.	.	.	.	4e\	.	4ee\	.
4A\	e-	2r	.	4c\	.	4cc\	.
4G\	.	.	.	4B\	e-	4b\	e-
!	!	!LO:LB:g=original	!	!	!	!	!
=39	=39	=39	=39	=39	=39	=39	=39
4F\	-le-	2.A\	Chri-	2A/	-le-	2a\	-le-
4A\	.	.	.	.	.	.	.
4F\	.	.	.	4d\	.	2cc\	.
4E\	.	4G/	.	4e\	.	.	.
!	!	!	!	!LO:LB:g=original	!	!	!
=40	=40	=40	=40	=40	=40	=40	=40
2.D\	.	4F/	-ste	2.f\	.	2.dd\	.
.	.	4A/	.	.	.	.	.
.	.	4F/	.	.	.	.	.
4C#X/	.	4E/	e-	4e\	-i-	4ee\	-i-
=41	=41	=41	=41	=41	=41	=41	=41
1D	-i-	2F/	-le-	1f	-son	2.a\	-son
.	.	2f\	.	.	.	.	.
.	.	.	.	.	.	4b\	e-
!LO:LB:g=original	!	!	!	!	!	!LO:LB:g=original	!
=42	=42	=42	=42	=42	=42	=42	=42
2AA/	-son	2.e\	.	2e\	chri-	4cc\	-le-
.	.	.	.	.	.	4a\	.
[2A\	e-	.	.	2e\	-ste	4cc\	.
.	.	4d\	-i-	.	.	4dd\	-i-
=43	=43	=43	=43	=43	=43	=43	=43
2A\]	.	2c\	-son	1e	e-	2.ee\	-son
2G#X\	.	2.B\	e-	.	.	.	.
.	.	.	.	.	.	4dd\	e-
=44	=44	=44	=44	=44	=44	=44	=44
1A	-lei-	.	.	1e	-lei-	1cc	-lei-
.	.	8A/L	.	.	.	.	.
.	.	8G/J	.	.	.	.	.
.	.	2A\	-lei-	.	.	.	.
=45	=45	=45	=45	=45	=45	=45	=45
!LO:TX:a:t=2	!	!LO:TX:a:t=2	!	!LO:TX:a:t=2	!	!	!
0E	-son.	0G#X	-son.	0e	-son.	0b	-son.
=46	=46	=46	=46	=46	=46	=46	=46
.	.	.	.	.	.	.	.
!	!	!LO:LB:g=original	!	!	!	!	!
=47||	=47||	=47||	=47||	=47||	=47||	=47||	=47||
!	!	!LO:TX:a:t=Kyrie	!	!LO:TX:a:t=3.	!	!	!
0r	.	1E	Ky-	0r	.	1ee	Ky-
=48	=48	=48	=48	=48	=48	=48	=48
.	.	2F#X/	.	.	.	2dd\	.
.	.	2Gn/	-ri-	.	.	2b\	-ri-
=49	=49	=49	=49	=49	=49	=49	=49
1A	Ky-	1A	-e	1r	.	1cc	-e
=50	=50	=50	=50	=50	=50	=50	=50
2G\	.	2B\	e-	1e	Ky-	2dd\	e-
2E\	-ri-	2c#X\	.	.	.	2ee\	.
=51	=51	=51	=51	=51	=51	=51	=51
4D\	-e	1d	-lei-	2d\	.	1ff	-lei-
4E\	.	.	.	.	.	.	.
4F\	.	.	.	4c\	.	.	.
4G\	.	.	.	4B\	-ri-	.	.
=52	=52	=52	=52	=52	=52	=52	=52
2A\	.	1cn	-son,	2A/	-e	2ee\	-son
2AA/	e-	.	.	2c\	e-	2a\	e-
!LO:LB:g=original	!	!	!	!LO:LB:g=original	!	!LO:LB:g=original	!
=53	=53	=53	=53	=53	=53	=53	=53
2BB/	-le-	2d\	e-	2d\	-le-	2g\	-le-
2C#X/	.	2.e\	.	2A/	.	2e/	.
=54	=54	=54	=54	=54	=54	=54	=54
1D	-i-	.	.	2f\	.	1f	-i-
.	.	8d\L	.	.	.	.	.
.	.	8c\J	.	.	.	.	.
.	.	2d\	.	2d\	-i-	.	.
=55	=55	=55	=55	=55	=55	=55	=55
1AA	-son	1c	-lei-	1e	-son	2e/	-son
.	.	.	.	.	.	2a\	e-
!	!	!LO:LB:g=original	!	!	!	!	!
=56	=56	=56	=56	=56	=56	=56	=56
2r	.	1B	-son	2r	.	2g\	-le-
2E\	Ky-	.	.	2e\	Ky-	4e/	.
.	.	.	.	.	.	4ee\	-i-
=57	=57	=57	=57	=57	=57	=57	=57
!	!	!LO:TX:a:t=1.	!	!	!	!	!
2F#X\	.	1r	.	2A/	.	2dd\	-son
2G#X\	-ri-	.	.	2d\	-ri-	2b\	e-
=58	=58	=58	=58	=58	=58	=58	=58
1A	-e	2r	.	2c\	-e	1cc	-le-
.	.	2A\	Ky-	4e\	e-	.	.
.	.	.	.	4f\	.	.	.
=59	=59	=59	=59	=59	=59	=59	=59
1E	e-	2G/	.	1g	-le-	2b\	.
.	.	2E/	-ri-	.	.	2cc\	-i-
=60	=60	=60	=60	=60	=60	=60	=60
2D\	-le-	2F#X/	-e	2f#X\	.	1dd	-son
2BB/	.	2G#X/	e-	2d\	-i-	.	.
=61	=61	=61	=61	=61	=61	=61	=61
4AA/	.	1A	-lei-	2e\	-son,	1cc	Ky-
4BB/	.	.	.	.	.	.	.
4C/	.	.	.	4e\	e-	.	.
4D/	.	.	.	4fn\	.	.	.
!	!	!	!	!LO:LB:g=original	!	!	!
=62	=62	=62	=62	=62	=62	=62	=62
4E\	.	1Gn	-son	4g\	-le-	2b\	.
4F\	.	.	.	4f\	.	.	.
4G\	.	.	.	2e\	-i-	[2ee\	-ri-
4A\	.	.	.	.	.	.	.
!LO:LB:g=original	!	!	!	!	!	!LO:LB:g=original	!
=63	=63	=63	=63	=63	=63	=63	=63
1F	.	2r	.	2f\	-son	2ee\]	-e
.	.	2A\	Ky-	2a\	e-	2dd\	.
=64	=64	=64	=64	=64	=64	=64	=64
1E	-i-	2B\	.	1g	-le-	1g	e-
.	.	2c#X\	-ri-	.	.	.	.
=65	=65	=65	=65	=65	=65	=65	=65
2D\	-son	1d	-e	2.a\	.	1f#X	-lei-
2D\	Ky-	.	.	.	.	.	.
.	.	.	.	4a\	-i-	.	.
=66	=66	=66	=66	=66	=66	=66	=66
2E\	.	1cn	e-	2e\	-son	2g\	-son
2F#X\	-ri-	.	.	2r	.	2a\	e-
!	!	!LO:LB:g=original	!	!	!	!	!
=67	=67	=67	=67	=67	=67	=67	=67
2Gn\	-e	2B\	-le-	2d\	Ky-	2b\	-le-
2E\	.	2e\	.	2e\	-ri-	2g\	-i-
=68	=68	=68	=68	=68	=68	=68	=68
2F#X\	e-	2d\	-son	2d\	-e	2a\	-son
2G#X\	.	2B\	e-	2e\	e-	2b\	e-
=69	=69	=69	=69	=69	=69	=69	=69
2A\	-le-	2c\	-le-	1e	-le-	2a\	-le-
2G#X\	.	2.B\	.	.	.	4ee\	.
.	.	.	.	.	.	4dd\	.
=70	=70	=70	=70	=70	=70	=70	=70
1A	-i-	.	.	1e	-i-	4cc\	.
.	.	8A/L	.	.	.	4b\	.
.	.	8G/J	.	.	.	.	.
.	.	2A/	-i-	.	.	2cc\	-i-
=71	=71	=71	=71	=71	=71	=71	=71
!	!	!LO:TX:a:t=2	!	!	!	!	!
0E	-son.	0G#X	-son.	0e	-son.	0b	-son.
=72	=72	=72	=72	=72	=72	=72	=72
.	.	.	.	.	.	.	.
=73	=73	=73	=73	=73	=73	=73	=73
!LO:TX:a:t=P:problem=dodatkowa nuta w S	!	!LO:TX:a:t=P:problem=dodatkowa nuta w S	!	!LO:TX:a:t=P:problem=dodatkowa nuta w S	!	!	!
0ryy	.	0ryy	.	0ryy	.	0cc#;	.
=74	=74	=74	=74	=74	=74	=74	=74
.	.	.	.	.	.	.	.
==	==	==	==	==	==	==	==
*-	*-	*-	*-	*-	*-	*-	*-
!!!system-decoration: [(s1,s2,s3,s4)]
!!!AIN: 1 alto 1 bass 1 soprn 1 tenor
!!!ENC: Zofia Niedbalska
!!!END: 2021-01-25
!!!ENC: Berenika Jozajtis
!!!END: 2021-01-21
